X:4
T: Ic sie die morghen sterre
N: L0035B
O: Europa, Mitteleuropa, Deutschland
R: Lied
M: 4/2
L: 1/4
K: D
D2 | =F2G2A2d2 | =c2B2A2
G2 | A2A2=c2A2 | AG=F2z2
F2 | E2E2AGE2 | D4=C2
=FGA | =c2c2AGA2 | =FED2z2

